X: 148116
T: LORD BREADALBANE'S MARCH
Q: "Slow."
R: March.
%R: air, jig, march
B: James Kerr "Merry Melodies" v.1 p.48 s.1 #16
Z: 2016 John Chambers <jc:trillian.mit.edu>
M: 6/8
L: 1/8
K: D
|:\
A>BA f>ed | B>AB dBA | A>BA f>ed | A>ee Te2ud |\
A>BA f>ed | e>dB d>BA | A>BA f>ed | A3/e/f/e/ Te2ud :|
|:\
e>fe a>fe | f>ef f>ed | e>fe a>fd | e>fe Te2ud |\
e>fe a>fe | f>ef f>ed | a>fe f>ed | A>ee Te2ud :|

%%sep 1 1 500
%%sep 1 1 500

